X: 5
T: No_104_Song_of_a_Head_Hunter.krn
N: Derived from No_104_Song_of_a_Head_Hunter.krn
%%abc-version 2.0
%%abcx-abcm2ps-target-version 5.9.1 (29 Sep 2008)
%%abc-creator hum2abc beta
%%abcx-conversion-date 2019/03/15 08:36:13
%%humdrum-veritas 1692355508
%%humdrum-veritas-data 1607064580
%%linebreak <none>
%%barnumbers 0
L: 1/8
M: 2/4
K: C clef=bass
[K:clef=bass][M:2/4](F,4 | 
F,4) | 
F,4 | 
F,4 | 
z4 | 
F,G,-G,2 | 
G,4 | 
z2z z/ F,/ ]|:  
F,2z z/ G,/ | 
G,4 | 
G,G,z2 | 
G,G,z2 | 
F,4- | 
F,4 | 
C,2C,2 | 
C,2z2 | 
F,2G,F, | 
F,2z2 | 
F,2z z/ C,/ | 
C,2z2 | 
F,4 | 
F,2F, z | 
F,2F, z | 
F,4 | 
G,4 | 
G,4 | 
F,2A,G, | 
G,4 | 
G,2z z/ F,/ :|]  



